images/filter.svg

<?xml version="1.0" ?><svg height="24px" version="1.1" viewBox="0 0 24 24" width="24px" xmlns="http://www.w3.org/2000/svg" xmlns:xlink="http://www.w3.org/1999/xlink"><title/><desc/><g fill="none" fill-rule="evenodd" id="Action-/-39---Action,-parameters,-params,-preferences,-setting,-settings,-filter-icon" stroke="none" stroke-linecap="round" stroke-linejoin="round" stroke-width="1"><path d="M8,11 C5.790861,11 4,9.209139 4,7 C4,4.790861 5.790861,3 8,3 C10.209139,3 12,4.790861 12,7 C12,9.209139 10.209139,11 8,11 Z" id="Path" stroke="#000000" stroke-width="2"/><path d="M16,21 C13.790861,21 12,19.209139 12,17 C12,14.790861 13.790861,13 16,13 C18.209139,13 20,14.790861 20,17 C20,19.209139 18.209139,21 16,21 Z" id="Path" stroke="#000000" stroke-width="2"/><path d="M2,7 L4,7 M11.9968545,7 L22,7 M22,17 L20,17 M12.0031455,17 L2,17" id="Path" stroke="#000000" stroke-width="2"/></g></svg>

<?xml version="1.0" encoding="UTF-8"?>
<svg width="24px" height="24px" version="1.1" viewBox="0 0 24 24" xmlns="http://www.w3.org/2000/svg" xmlns:cc="http://creativecommons.org/ns#" xmlns:dc="http://purl.org/dc/elements/1.1/" xmlns:rdf="http://www.w3.org/1999/02/22-rdf-syntax-ns#">
 <metadata>
  <rdf:RDF>
   <cc:Work rdf:about="">
    <dc:format>image/svg+xml</dc:format>
    <dc:type rdf:resource="http://purl.org/dc/dcmitype/StillImage"/>
    <dc:title/>
   </cc:Work>
  </rdf:RDF>
 </metadata>
 <g id="Action-/-39---Action,-parameters,-params,-preferences,-setting,-settings,-filter-icon" transform="matrix(1,0,0,-1,0,24)" fill="none" fill-rule="evenodd" stroke="#000" stroke-linecap="round" stroke-linejoin="round" stroke-width="2">
  <path id="Path" d="m8 11c-2.2091 0-4-1.7909-4-4s1.7909-4 4-4 4 1.7909 4 4-1.7909 4-4 4z"/>
  <path d="m16 21c-2.2091 0-4-1.7909-4-4s1.7909-4 4-4 4 1.7909 4 4-1.7909 4-4 4z"/>
  <path d="m2 7h2m7.9969 0h10.003m0 10h-2m-7.9969 0h-10.003"/>
 </g>
</svg>
